X:1
T: Ghost Mountain
C:Gordy Euler
R:Reel
Q: 232
K:F#m
M:4/4
L:1/8
|:FA ce fc AG|A2 cA fA cA|B2 dB fB dB|c2 ^eg cB AG|
FA ce fc AG|A2 cA fA cA|B2 dB fB cd|cB AG F4:|
|:f2 cf ac fe|f2 cf ac fe|dB cA BG FA|cd ed c2 ^d^e|
f2 cf ac fe|f2 cf ac fe|dc Bd cA Bd|cB AG F4:|
